X:1
T:The Flower of Edingburgh
T:Set for the German Flute
S:The Universal Magazine, April, 1749, page 175
S:<rlworthi:frontier.com> tradtunes 2014-04-27
M:C
L:1/8
Z:Addie 2014
K:G
V:1
(B/c/d) |\
D3E G3A | (BG)(dG) B2(AG) | TF3E (DE) (FG) | (AF) (dF)TE3F |\
D3E G3A | B2d2 e2{ef}g2 | {c}B2(AG)A2(GA) | B2G2 G2 |]
d2 |\
(gf)(ga) (g/a/b) (ag) | (fe)(fg) (f/g/a) (gf) | (e^d)(ef) (gf)(e^d) | B2e2 e2{ef}g2 |\
B2(Ag) d2(Bd) | (ed)(ef) g2(g/a/b) | {c}B2(AG) A2(GA) | B2G2 G2 |]
V:2 clef=bass middle=d transpose=-24
z2 |\
g2b2e2c'2 | d'2e2g2z2 | d'2a2f2 d2 | d'2g2e2d2 |\
g2b2e2c'2 | d'2b2c'4 | b2g2f2d2 | g2z2G2 |]
z2 |\
b3ag2z2 | a3gf2z2 | g3f efga | bagfe2 z2 |\
g2z2b2z2 | c'4c4 | B2 c2d2D2 | G2z2G2 |]
